X: 13
T: Paddy Fahey's
C: Paddy Fahey
Z: swisspiper
S: https://thesession.org/tunes/463#setting54025
R: reel
M: 4/4
L: 1/8
K: Ddor
|: "Dm" D2DE FFFG| "Dm" AdcA "Dm" d2de| "F" fedc "Dm" edcA| "C" AcAG "Dm" FDEG|
"Dm" (3DDD DE FFFG| "Dm" AdcA "Dm" d2de| "F" fedf "Dm" edcA| "Am" AcAG "Dm" FDD2:|
|: "D" Ad~d2 "D" ^fded|"C"c2Bc "C" Gcec| "D" Ad~d2 "D" ^fded| "C" cBcd "D" edcA|
[1 "D"Ad~d2 "D" ^fded|"C"c2Bc "C" Gcec| "D" Ad~d2 "D" ^fded| "D" AdcA d3c:|
[2 "A" a2^ga "Em"ed^cA| "Dm" dcAG "F" FDEG| "Dm" (3DDD DE "F"FFFG| "Am" AdcA "Dm" d4||

